src/svgs/fountain.svg

<svg xmlns="http://www.w3.org/2000/svg" viewBox="0 0 24 24" width="512" height="512" aria-labelledby="eyfountain-desc eyfountain-title"><title id="eyfountain-title">Fountain Icon</title><desc id="eyfountain-desc">A picture depicting a water fountain.</desc><path d="M22 20a2 2 0 01-2 2H4a2 2 0 01-2-2h6v-3.116A6.474 6.474 0 016 15H4v-2h16v2h-2a6.474 6.474 0 01-2 1.884V20zM16 2a4.98 4.98 0 00-4 2.027A4.987 4.987 0 003 7h2a2.992 2.992 0 015.821-.982A4.991 4.991 0 006 11h2a3 3 0 013-3v3h2V8a3 3 0 013 3h2a4.991 4.991 0 00-4.821-4.982A2.992 2.992 0 0119 7h2a5 5 0 00-5-5z"/></svg>

<svg xmlns="http://www.w3.org/2000/svg" viewBox="0 0 24 24"><path d="M22,20a2,2,0,0,1-2,2H4a2,2,0,0,1-2-2H8V16.884A6.474,6.474,0,0,1,6,15H4V13H20v2H18a6.474,6.474,0,0,1-2,1.884V20ZM16,2a4.98,4.98,0,0,0-4,2.027A4.987,4.987,0,0,0,3,7H5a2.992,2.992,0,0,1,5.821-.982A4.991,4.991,0,0,0,6,11H8a3,3,0,0,1,3-3v3h2V8a3,3,0,0,1,3,3h2a4.991,4.991,0,0,0-4.821-4.982A2.992,2.992,0,0,1,19,7h2A5,5,0,0,0,16,2Z"/></svg>
